public/images/poses-lg/HeadStand.svg

<svg width="800" height="800" fill="none" xmlns="http://www.w3.org/2000/svg"><path d="M350.008 530.73c11.346 1.936 31.648 5.406 31.648 5.406s2.716 29.797 11.789 50.375c9.067 20.575 15.081 68.081 15.956 74.551 0 0-8.783-21.678-27.371-20.729-21.197 1.084-28.195 30.75-24.294 47.47 0 0-10.999-11.188-20.147-15.188-9.152-4-17.851-19.047-16.884-29.171.965-10.121 7.686-38.971 6.179-51.06-1.504-12.083-6.546-65.023-6.193-66.662l29.317 5.008Z" fill="#fff" stroke="#000" stroke-width="5" stroke-miterlimit="10"/><path d="M350.008 530.73c11.346 1.936 31.648 5.406 31.648 5.406s2.716 29.797 11.789 50.375c9.067 20.575 15.081 68.081 15.956 74.551 0 0-8.783-21.678-27.371-20.729-21.197 1.084-28.195 30.75-24.294 47.47 0 0-10.999-11.188-20.147-15.188-9.152-4-17.851-19.047-16.884-29.171.965-10.121 7.686-38.971 6.179-51.06-1.504-12.083-6.546-65.023-6.193-66.662l29.317 5.008ZM381.656 536.136l-60.964-10.413M381.656 536.136l-60.964-10.413" stroke="#000" stroke-width="5" stroke-miterlimit="10"/><path d="M351.173 530.928c9.568 1.636 30.483 5.208 30.483 5.208s-1.135-14.715 1.989-19.666c3.121-4.949 16.755-25.021 18.347-41.835 1.59-16.817.969-30.603-8.615-52.403-9.589-21.8-12.56-57.227-6.802-79.107 5.761-21.879 15.547-49.449 15.608-77.204.06-27.757-.438-66.142.44-77.401.879-11.258 2.685-28.753 5.032-32.543 2.345-3.789 7.603.075 10.973-3.615 3.372-3.692.676-11.23-4.766-23.304-5.439-12.074-16.412-40.547-19.203-48-2.792-7.45-10.797-8.226-10.139-1.226.66 6.998 1.489 21.246 1.124 36.269-.365 15.021-1.426 45.451-3.92 59.375-2.488 13.923-11.651 51.845-17.571 70.829-5.923 18.983-29.501 83.649-32.267 98.453-2.771 14.804-14.909 70.282-16.621 109.129-1.712 38.842 5.427 71.834 5.427 71.834l30.481 5.207Z" fill="#fff" stroke="#000" stroke-width="5" stroke-miterlimit="10"/><path d="M351.173 530.928c9.568 1.636 30.483 5.208 30.483 5.208s-1.135-14.715 1.989-19.666c3.121-4.949 16.755-25.021 18.347-41.835 1.59-16.817.969-30.603-8.615-52.403-9.589-21.8-12.56-57.227-6.802-79.107 5.761-21.879 15.547-49.449 15.608-77.204.06-27.757-.438-66.142.44-77.401.879-11.258 2.685-28.753 5.032-32.543 2.345-3.789 7.603.075 10.973-3.615 3.372-3.692.676-11.23-4.766-23.304-5.439-12.074-16.412-40.547-19.203-48-2.792-7.45-10.797-8.226-10.139-1.226.66 6.998 1.489 21.246 1.124 36.269-.365 15.021-1.426 45.451-3.92 59.375-2.488 13.923-11.651 51.845-17.571 70.829-5.923 18.983-29.501 83.649-32.267 98.453-2.771 14.804-14.909 70.282-16.621 109.129-1.712 38.842 5.427 71.834 5.427 71.834l30.481 5.207Z" stroke="#000" stroke-width="5" stroke-miterlimit="10"/><path d="M427.086 734.299c1.463 8.039-4.039 13.534-5.663 22.369-2.586 14.033-23.363 21.515-38.1 15.425-19.456-8.043 4.257-79.301 16.182-76.526 7.06 1.645 17.48 11.706 22.572 26.149 1.638 4.643 5.009 12.583 5.009 12.583Z" fill="#fff" stroke="#000" stroke-width="5" stroke-miterlimit="10"/><path d="M427.086 734.299c1.463 8.039-4.039 13.534-5.663 22.369-2.586 14.033-23.363 21.515-38.1 15.425-19.456-8.043 4.257-79.301 16.182-76.526 7.06 1.645 17.48 11.706 22.572 26.149 1.638 4.643 5.009 12.583 5.009 12.583Z" stroke="#000" stroke-width="5" stroke-miterlimit="10"/><path d="M377.897 760.928c4.593-12.35 21.588-31.67 35.781-22.147 15.955 10.707 12.455-2.287 12.233-6.072-.227-3.786-6.579-13.008-4.5-13.337 2.076-.331 23.167 17.084 19.293 35.857-3.87 18.768-11.5 26.588-22.731 28.868-11.235 2.279-30.888-3.506-38.162-12.472-7.28-8.969-1.914-10.697-1.914-10.697Z" fill="#000" stroke="#000" stroke-width="5" stroke-miterlimit="10"/><path d="M374.382 643.299c6.063-3.429 15.948-7.093 27.718 3.738 0 0 6.75 7.066 9.465 14.024 0 0 .565 6.735-2.354 16.59-2.92 9.856-48.298 78.749-47.581 83.841.724 5.096 68.051 12.849 80.484 13.699 12.43.853 14.103 1.741 22.655-3.75 8.556-5.488 20.918 2.724 19.925 11.563-.995 8.844-10.471 11.512-16.921 10.987-6.446-.52-8.066-3.087-22.598-1.488-14.527 1.598-61.72 2.22-89.141 1.955-27.425-.264-32.715-1.167-35.032-7.299-2.316-6.138 2.806-34.345 11.911-63.231 4.48-14.213 25.425-57.054 30.68-67.509 5.258-10.46 10.789-13.12 10.789-13.12Z" fill="#fff" stroke="#000" stroke-width="5" stroke-miterlimit="10"/><path d="M374.382 643.299c6.063-3.429 15.948-7.093 27.718 3.738 0 0 6.75 7.066 9.465 14.024 0 0 .565 6.735-2.354 16.59-2.92 9.856-48.298 78.749-47.581 83.841.724 5.096 68.051 12.849 80.484 13.699 12.43.853 14.103 1.741 22.655-3.75 8.556-5.488 20.918 2.724 19.925 11.563-.995 8.844-10.471 11.512-16.921 10.987-6.446-.52-8.066-3.087-22.598-1.488-14.527 1.598-61.72 2.22-89.141 1.955-27.425-.264-32.715-1.167-35.032-7.299-2.316-6.138 2.806-34.345 11.911-63.231 4.48-14.213 25.425-57.054 30.68-67.509 5.258-10.46 10.789-13.12 10.789-13.12Z" stroke="#000" stroke-width="5" stroke-miterlimit="10"/><path d="M402.21 200.244c-8.036-4.872-24.043-7.856-24.043-7.856Z" fill="#fff"/><path d="M402.21 200.244c-8.036-4.872-24.043-7.856-24.043-7.856" stroke="#000" stroke-width="5" stroke-miterlimit="10"/><path d="M402.21 200.244c-8.036-4.872-24.043-7.856-24.043-7.856" stroke="#000" stroke-width="5" stroke-miterlimit="10"/></svg>

<svg width="800" height="800" viewBox="0 0 800 800" fill="none" xmlns="http://www.w3.org/2000/svg">
<path d="M350.008 530.73C361.354 532.666 381.656 536.136 381.656 536.136C381.656 536.136 384.372 565.933 393.445 586.511C402.512 607.086 408.526 654.592 409.401 661.062C409.401 661.062 400.618 639.384 382.03 640.333C360.833 641.417 353.835 671.083 357.736 687.803C357.736 687.803 346.737 676.615 337.589 672.615C328.437 668.615 319.738 653.568 320.705 643.444C321.67 633.323 328.391 604.473 326.884 592.384C325.38 580.301 320.338 527.361 320.691 525.722L350.008 530.73Z" fill="white" stroke="black" stroke-width="5" stroke-miterlimit="10"/>
<path d="M350.008 530.73C361.354 532.666 381.656 536.136 381.656 536.136C381.656 536.136 384.372 565.933 393.445 586.511C402.512 607.086 408.526 654.592 409.401 661.062C409.401 661.062 400.618 639.384 382.03 640.333C360.833 641.417 353.835 671.083 357.736 687.803C357.736 687.803 346.737 676.615 337.589 672.615C328.437 668.615 319.738 653.568 320.705 643.444C321.67 633.323 328.391 604.473 326.884 592.384C325.38 580.301 320.338 527.361 320.691 525.722L350.008 530.73Z" stroke="black" stroke-width="5" stroke-miterlimit="10"/>
<path d="M381.656 536.136L320.692 525.723" stroke="black" stroke-width="5" stroke-miterlimit="10"/>
<path d="M381.656 536.136L320.692 525.723" stroke="black" stroke-width="5" stroke-miterlimit="10"/>
<path d="M351.173 530.928C360.741 532.564 381.656 536.136 381.656 536.136C381.656 536.136 380.521 521.421 383.645 516.47C386.766 511.521 400.4 491.449 401.992 474.635C403.582 457.818 402.961 444.032 393.377 422.232C383.788 400.432 380.817 365.005 386.575 343.125C392.336 321.246 402.122 293.676 402.183 265.921C402.243 238.164 401.745 199.779 402.623 188.52C403.502 177.262 405.308 159.767 407.655 155.977C410 152.188 415.258 156.052 418.628 152.362C422 148.67 419.304 141.132 413.862 129.058C408.423 116.984 397.45 88.5106 394.659 81.0577C391.867 73.6074 383.862 72.832 384.52 79.8316C385.18 86.8304 386.009 101.078 385.644 116.101C385.279 131.122 384.218 161.552 381.724 175.476C379.236 189.399 370.073 227.321 364.153 246.305C358.23 265.288 334.652 329.954 331.886 344.758C329.115 359.562 316.977 415.04 315.265 453.887C313.553 492.729 320.692 525.721 320.692 525.721L351.173 530.928Z" fill="white" stroke="black" stroke-width="5" stroke-miterlimit="10"/>
<path d="M351.173 530.928C360.741 532.564 381.656 536.136 381.656 536.136C381.656 536.136 380.521 521.421 383.645 516.47C386.766 511.521 400.4 491.449 401.992 474.635C403.582 457.818 402.961 444.032 393.377 422.232C383.788 400.432 380.817 365.005 386.575 343.125C392.336 321.246 402.122 293.676 402.183 265.921C402.243 238.164 401.745 199.779 402.623 188.52C403.502 177.262 405.308 159.767 407.655 155.977C410 152.188 415.258 156.052 418.628 152.362C422 148.67 419.304 141.132 413.862 129.058C408.423 116.984 397.45 88.5106 394.659 81.0577C391.867 73.6074 383.862 72.832 384.52 79.8316C385.18 86.8304 386.009 101.078 385.644 116.101C385.279 131.122 384.218 161.552 381.724 175.476C379.236 189.399 370.073 227.321 364.153 246.305C358.23 265.288 334.652 329.954 331.886 344.758C329.115 359.562 316.977 415.04 315.265 453.887C313.553 492.729 320.692 525.721 320.692 525.721L351.173 530.928Z" stroke="black" stroke-width="5" stroke-miterlimit="10"/>
<path d="M427.086 734.299C428.549 742.338 423.047 747.833 421.423 756.668C418.837 770.701 398.06 778.183 383.323 772.093C363.867 764.05 387.58 692.792 399.505 695.567C406.565 697.212 416.985 707.273 422.077 721.716C423.715 726.359 427.086 734.299 427.086 734.299Z" fill="white" stroke="black" stroke-width="5" stroke-miterlimit="10"/>
<path d="M427.086 734.299C428.549 742.338 423.047 747.833 421.423 756.668C418.837 770.701 398.06 778.183 383.323 772.093C363.867 764.05 387.58 692.792 399.505 695.567C406.565 697.212 416.985 707.273 422.077 721.716C423.715 726.359 427.086 734.299 427.086 734.299Z" stroke="black" stroke-width="5" stroke-miterlimit="10"/>
<path d="M377.897 760.928C382.49 748.578 399.485 729.258 413.678 738.781C429.633 749.488 426.133 736.494 425.911 732.709C425.684 728.923 419.332 719.701 421.411 719.372C423.487 719.041 444.578 736.456 440.704 755.229C436.834 773.997 429.204 781.817 417.973 784.097C406.738 786.376 387.085 780.591 379.811 771.625C372.531 762.656 377.897 760.928 377.897 760.928Z" fill="black" stroke="black" stroke-width="5" stroke-miterlimit="10"/>
<path d="M374.382 643.299C380.445 639.87 390.33 636.206 402.1 647.037C402.1 647.037 408.85 654.103 411.565 661.061C411.565 661.061 412.13 667.796 409.211 677.651C406.291 687.507 360.913 756.4 361.63 761.492C362.354 766.588 429.681 774.341 442.114 775.191C454.544 776.044 456.217 776.932 464.769 771.441C473.325 765.953 485.687 774.165 484.694 783.004C483.699 791.848 474.223 794.516 467.773 793.991C461.327 793.471 459.707 790.904 445.175 792.503C430.648 794.101 383.455 794.723 356.034 794.458C328.609 794.194 323.319 793.291 321.002 787.159C318.686 781.021 323.808 752.814 332.913 723.928C337.393 709.715 358.338 666.874 363.593 656.419C368.851 645.959 374.382 643.299 374.382 643.299Z" fill="white" stroke="black" stroke-width="5" stroke-miterlimit="10"/>
<path d="M374.382 643.299C380.445 639.87 390.33 636.206 402.1 647.037C402.1 647.037 408.85 654.103 411.565 661.061C411.565 661.061 412.13 667.796 409.211 677.651C406.291 687.507 360.913 756.4 361.63 761.492C362.354 766.588 429.681 774.341 442.114 775.191C454.544 776.044 456.217 776.932 464.769 771.441C473.325 765.953 485.687 774.165 484.694 783.004C483.699 791.848 474.223 794.516 467.773 793.991C461.327 793.471 459.707 790.904 445.175 792.503C430.648 794.101 383.455 794.723 356.034 794.458C328.609 794.194 323.319 793.291 321.002 787.159C318.686 781.021 323.808 752.814 332.913 723.928C337.393 709.715 358.338 666.874 363.593 656.419C368.851 645.959 374.382 643.299 374.382 643.299Z" stroke="black" stroke-width="5" stroke-miterlimit="10"/>
<path d="M402.21 200.244C394.174 195.372 378.167 192.388 378.167 192.388Z" fill="white"/>
<path d="M402.21 200.244C394.174 195.372 378.167 192.388 378.167 192.388" stroke="black" stroke-width="5" stroke-miterlimit="10"/>
<path d="M402.21 200.244C394.174 195.372 378.167 192.388 378.167 192.388" stroke="black" stroke-width="5" stroke-miterlimit="10"/>
</svg>
